X:1
T:Perth, 88.88.88
T:Perth, 88.88.88
T:The Sabbath Hym and Tune Book, 1859
T:Public Domain Courtesy of the Cyber Hymnal™
C:The Sabbath Hym and Tune Book, 1859
Z:Public Domain
Z:Courtesy of the Cyber Hymnal™
%%score ( 1 2 ) ( 3 4 )
L:1/8
Q:1/4=115
M:6/4
K:A
V:1 treble 
V:2 treble 
V:3 bass 
V:4 bass 
V:1
|: [CA]4 | E2 [EA]2 [EG]2 [CA]2 [FB]2 [EG]2 | [EA]4 [Ec]4 | [EB]2 [Ee]2 [Ec]2 [EA]2 [EG]2 [^DF]2 | %4
 E4 :| [EB]4 | [EG]2 E2 [EA]2 [Ec]2 [Ed]2 [Ec]2 | [EB]4 [Ec]4 | %8
 [CF]2 [FB]2 [EG]2 [CA]2 [Ec]2 [DB]2 | [CA]4 |] %10
V:2
|: x4 | E2 x10 | x8 | x12 | E4 :| x4 | x2 E2 x8 | x8 | x12 | x4 |] %10
V:3
|: [A,,A,]4 | [C,A,]2 [A,,C]2 [E,B,]2 [F,A,]2 [D,D]2 [E,B,]2 | [A,,C]4 A,4 | %3
 [G,B,]2 [E,G,]2 A,2 [A,,C]2 [B,,B,]2 [B,,A,]2 | [E,G,]4 :| [E,G,]4 | %6
 [E,B,]2 [D,G,]2 [C,A,]2 A,2 [G,B,]2 A,2 | [E,G,]4 [C,G,]4 | %8
 [F,A,]2 [D,D]2 [E,B,]2 [F,A,]2 [E,A,]2 [E,G,]2 | [A,,A,]4 |] %10
V:4
|: x4 | x12 | x4 A,4 | x4 A,2 x6 | x4 :| x4 | x6 A,2 A,2 x2 | x8 | x12 | x4 |] %10

